devices/24/drive-removable-media.svg

<?xml version="1.0" encoding="UTF-8" standalone="no"?>
<svg
   xmlns:dc="http://purl.org/dc/elements/1.1/"
   xmlns:cc="http://creativecommons.org/ns#"
   xmlns:rdf="http://www.w3.org/1999/02/22-rdf-syntax-ns#"
   xmlns:svg="http://www.w3.org/2000/svg"
   xmlns="http://www.w3.org/2000/svg"
   xmlns:xlink="http://www.w3.org/1999/xlink"
   version="1.0"
   width="24"
   height="24"
   id="svg2">
  <metadata
     id="metadata88">
    <rdf:RDF>
      <cc:Work
         rdf:about="">
        <dc:format>image/svg+xml</dc:format>
        <dc:type
           rdf:resource="http://purl.org/dc/dcmitype/StillImage" />
        <dc:title />
      </cc:Work>
    </rdf:RDF>
  </metadata>
  <defs
     id="defs4">
    <linearGradient
       id="linearGradient4075">
      <stop
         id="stop4077"
         style="stop-color:#ffffff;stop-opacity:1"
         offset="0" />
      <stop
         id="stop4079"
         style="stop-color:#ffffff;stop-opacity:0.23529412"
         offset="0.03367912" />
      <stop
         id="stop4081"
         style="stop-color:#ffffff;stop-opacity:0.15686275"
         offset="0.99223143" />
      <stop
         id="stop4083"
         style="stop-color:#ffffff;stop-opacity:0.39215687"
         offset="1" />
    </linearGradient>
    <linearGradient
       id="linearGradient5048">
      <stop
         id="stop5050"
         style="stop-color:#000000;stop-opacity:0"
         offset="0" />
      <stop
         id="stop5056"
         style="stop-color:#000000;stop-opacity:1"
         offset="0.5" />
      <stop
         id="stop5052"
         style="stop-color:#000000;stop-opacity:0"
         offset="1" />
    </linearGradient>
    <linearGradient
       id="linearGradient5060">
      <stop
         id="stop5062"
         style="stop-color:#000000;stop-opacity:1"
         offset="0" />
      <stop
         id="stop5064"
         style="stop-color:#000000;stop-opacity:0"
         offset="1" />
    </linearGradient>
    <linearGradient
       x1="53.99139"
       y1="87.89592"
       x2="53.99139"
       y2="104.28131"
       id="linearGradient2872"
       xlink:href="#linearGradient2215-9"
       gradientUnits="userSpaceOnUse"
       gradientTransform="matrix(0.1904597,0,0,0.2485308,0.090799,-3.484712)" />
    <radialGradient
       cx="605.71429"
       cy="486.64789"
       r="117.14286"
       fx="605.71429"
       fy="486.64789"
       id="radialGradient2877"
       xlink:href="#linearGradient5060"
       gradientUnits="userSpaceOnUse"
       gradientTransform="matrix(-0.02218262,0,0,0.01085997,16.259269,17.380799)" />
    <radialGradient
       cx="605.71429"
       cy="486.64789"
       r="117.14286"
       fx="605.71429"
       fy="486.64789"
       id="radialGradient2880"
       xlink:href="#linearGradient5060"
       gradientUnits="userSpaceOnUse"
       gradientTransform="matrix(0.02218262,0,0,0.01085997,7.7407365,17.380799)" />
    <linearGradient
       x1="302.85715"
       y1="366.64789"
       x2="302.85715"
       y2="609.50507"
       id="linearGradient2883"
       xlink:href="#linearGradient5048"
       gradientUnits="userSpaceOnUse"
       gradientTransform="matrix(0.03776775,0,0,0.01085997,-1.650341,17.380799)" />
    <linearGradient
       id="linearGradient7056-0">
      <stop
         id="stop7064-4"
         style="stop-color:#e6e6e6;stop-opacity:1"
         offset="0" />
      <stop
         id="stop7060-2"
         style="stop-color:#c8c8c8;stop-opacity:1"
         offset="1" />
    </linearGradient>
    <linearGradient
       id="linearGradient2215-9">
      <stop
         id="stop2223-6"
         style="stop-color:#7a7a7a;stop-opacity:1"
         offset="0" />
      <stop
         id="stop2219-1"
         style="stop-color:#474747;stop-opacity:1"
         offset="1" />
    </linearGradient>
    <radialGradient
       cx="7.2203388"
       cy="4.2332726"
       r="12"
       fx="7.2203388"
       fy="4.2332726"
       id="radialGradient4072"
       xlink:href="#linearGradient7056-0"
       gradientUnits="userSpaceOnUse"
       gradientTransform="matrix(1.5193809,0.00371571,-0.00302474,1.2368318,-3.737301,0.06783288)" />
    <linearGradient
       x1="23.99999"
       y1="51.346149"
       x2="23.99999"
       y2="53.354122"
       id="linearGradient4525"
       xlink:href="#linearGradient4472"
       gradientUnits="userSpaceOnUse"
       gradientTransform="matrix(0.42777307,0,0,0.51069006,6.7368356,-6.2528082)" />
    <linearGradient
       id="linearGradient4472">
      <stop
         id="stop4474"
         style="stop-color:#ffffff;stop-opacity:1"
         offset="0" />
      <stop
         id="stop4476"
         style="stop-color:#ffffff;stop-opacity:0.23529412"
         offset="0.02116842" />
      <stop
         id="stop4478"
         style="stop-color:#ffffff;stop-opacity:0.15686275"
         offset="0.99223143" />
      <stop
         id="stop4480"
         style="stop-color:#ffffff;stop-opacity:0.39215687"
         offset="1" />
    </linearGradient>
    <linearGradient
       x1="53.99139"
       y1="87.89592"
       x2="53.99139"
       y2="104.28131"
       id="linearGradient8226"
       xlink:href="#linearGradient2215-9-1"
       gradientUnits="userSpaceOnUse"
       gradientTransform="matrix(0.1242128,0,0,0.1863981,-17.326193,0.92450541)" />
    <linearGradient
       id="linearGradient2215-9-1">
      <stop
         id="stop2223-6-3"
         style="stop-color:#7a7a7a;stop-opacity:1"
         offset="0" />
      <stop
         id="stop2219-1-0"
         style="stop-color:#474747;stop-opacity:1"
         offset="1" />
    </linearGradient>
    <linearGradient
       id="linearGradient7056-0-9">
      <stop
         id="stop7064-4-6"
         style="stop-color:#e6e6e6;stop-opacity:1"
         offset="0" />
      <stop
         id="stop7060-2-5"
         style="stop-color:#c8c8c8;stop-opacity:1"
         offset="1" />
    </linearGradient>
    <radialGradient
       cx="4.1993008"
       cy="2.3117516"
       r="7.9999995"
       fx="4.1993008"
       fy="2.3117516"
       id="radialGradient3044"
       xlink:href="#linearGradient7056-0-9"
       gradientUnits="userSpaceOnUse"
       gradientTransform="matrix(1.1767008,1.0376968,-0.76927742,0.87232541,-16.522963,1.6381014)" />
    <linearGradient
       x1="23.99999"
       y1="6.5391083"
       x2="23.99999"
       y2="42.102226"
       id="linearGradient4161-4"
       xlink:href="#linearGradient4075"
       gradientUnits="userSpaceOnUse"
       gradientTransform="matrix(0.26232885,0,0,0.42474288,8.0835877,-0.81629626)" />
  </defs>
  <rect
     width="18.236429"
     height="2.6374204"
     x="2.8817775"
     y="21.362579"
     id="rect2723"
     style="opacity:0.40206185;fill:url(#linearGradient2883);fill-opacity:1;fill-rule:nonzero;stroke:none;stroke-width:1;marker:none;visibility:visible;display:inline;overflow:visible" />
  <path
     d="m 21.109321,21.362672 c 0,0 0,2.637274 0,2.637274 1.142348,0.005 2.761647,-0.59088 2.761647,-1.318806 0,-0.727927 -1.274774,-1.318468 -2.761647,-1.318468 z"
     id="path2725"
     style="opacity:0.40206185;fill:url(#radialGradient2880);fill-opacity:1;fill-rule:nonzero;stroke:none;stroke-width:1;marker:none;visibility:visible;display:inline;overflow:visible" />
  <path
     d="m 2.890679,21.362672 c 0,0 0,2.637274 0,2.637274 -1.142353,0.005 -2.761647,-0.59088 -2.761647,-1.318806 0,-0.727927 1.274779,-1.318468 2.761647,-1.318468 z"
     id="path2727"
     style="opacity:0.40206185;fill:url(#radialGradient2877);fill-opacity:1;fill-rule:nonzero;stroke:none;stroke-width:1;marker:none;visibility:visible;display:inline;overflow:visible" />
  <path
     d="M 2.5,2 0.522616,18.483328 c -0.014949,0 -0.022616,0.0044 -0.022616,0.01667 l 23,0 c 0,-0.01232 -0.0077,-0.01667 -0.02261,-0.01667 L 21.5,2 C 21.40074,1.172599 20.333333,0.50000001 19.5,0.50000001 l -15,0 C 3.6666667,0.50000001 2.5992572,1.172599 2.5,2 z"
     id="rect2990"
     style="fill:url(#radialGradient4072);fill-opacity:1;fill-rule:nonzero;stroke:none;stroke-width:0.99999994;marker:none;visibility:visible;display:inline;overflow:visible;enable-background:accumulate" />
  <path
     d="M 2.5,2 0.522616,18.483328 c -0.014949,0 -0.022616,0.0044 -0.022616,0.01667 l 23,0 c 0,-0.01232 -0.0077,-0.01667 -0.02261,-0.01667 L 21.5,2 C 21.40074,1.172599 20.333333,0.49999997 19.5,0.49999997 l -15,0 C 3.6666667,0.49999997 2.5992572,1.172599 2.5,2 z"
     id="rect2990-5"
     style="opacity:0.35;color:#000000;fill:none;stroke:#000000;stroke-width:0.99999988;stroke-linecap:round;stroke-linejoin:round;stroke-miterlimit:4;stroke-opacity:1;stroke-dasharray:none;stroke-dashoffset:0;marker:none;visibility:visible;display:inline;overflow:visible;enable-background:accumulate" />
  <path
     d="m 23.5,18.5 c -0.466387,3.38005 -0.351379,3.981514 -1.195903,3.981514 -0.330786,0.04823 -13.33742,0 -20.654254,0 -0.917139,0 -0.685406,0.06576 -1.149843,-3.978565 l 23,-0.0029 0,-4.9e-5 z"
     id="rect2992"
     style="fill:url(#linearGradient2872);fill-opacity:1;fill-rule:nonzero;stroke:none;stroke-width:1;marker:none;visibility:visible;display:inline;overflow:visible;enable-background:accumulate" />
  <path
     d="m 23.5,18.5 c -0.466387,3.38005 -0.351379,3.981514 -1.195903,3.981514 -0.330786,0.04823 -13.33742,0 -20.654254,0 -0.917139,0 -0.685406,0.06576 -1.149843,-3.978565 l 23,-0.0029 0,-4.9e-5 z"
     id="rect2992-0"
     style="opacity:0.5;color:#000000;fill:none;stroke:#000000;stroke-width:1;stroke-linecap:butt;stroke-linejoin:round;stroke-miterlimit:4;stroke-opacity:1;stroke-dasharray:none;stroke-dashoffset:0;marker:none;visibility:visible;display:inline;overflow:visible;enable-background:accumulate" />
  <path
     d="m 1.8811692,21.468685 20.1351998,0.01866 c 0.0552,-0.198713 0.332357,-1.987316 0.332357,-1.987316 l -20.7291868,0 c 0,0 0.1806404,1.463168 0.26163,1.968656 z"
     id="path4497"
     style="opacity:0.2;color:#000000;fill:none;stroke:url(#linearGradient4525);stroke-width:1;stroke-linecap:round;stroke-linejoin:miter;stroke-miterlimit:4;stroke-opacity:1;stroke-dasharray:none;stroke-dashoffset:0;marker:none;visibility:visible;display:inline;overflow:visible;enable-background:accumulate" />
  <path
     d="M 4.5,1.46875 C 4.3477124,1.46875 4.0083027,1.5891821 3.78125,1.75 3.5541973,1.9108179 3.4725109,2.0936491 3.46875,2.125 L 1.625,17.53125 l 20.75,0 L 20.53125,2.125 C 20.527489,2.0936468 20.445803,1.910818 20.21875,1.75 19.991697,1.589182 19.652287,1.46875 19.5,1.46875 l -15,0 z"
     id="path4034"
     style="opacity:0.8;color:#000000;fill:none;stroke:url(#linearGradient4161-4);stroke-width:1;stroke-linecap:round;stroke-linejoin:round;stroke-miterlimit:4;stroke-opacity:1;stroke-dasharray:none;stroke-dashoffset:0;marker:none;visibility:visible;display:inline;overflow:visible;enable-background:accumulate" />
</svg>

<svg xmlns="http://www.w3.org/2000/svg" xmlns:xlink="http://www.w3.org/1999/xlink" viewBox="0 0 24 24"><defs><linearGradient id="f"><stop offset="0" stop-color="#fff"/><stop offset=".034" stop-color="#fff" stop-opacity=".235"/><stop offset=".992" stop-color="#fff" stop-opacity=".157"/><stop offset="1" stop-color="#fff" stop-opacity=".392"/></linearGradient><linearGradient id="c"><stop offset="0" stop-opacity="0"/><stop offset=".5"/><stop offset="1" stop-opacity="0"/></linearGradient><linearGradient id="b"><stop offset="0"/><stop offset="1" stop-opacity="0"/></linearGradient><linearGradient x1="53.991" y1="87.896" x2="53.991" y2="104.281" id="k" xlink:href="#a" gradientUnits="userSpaceOnUse" gradientTransform="matrix(.19046 0 0 .24853 .09 -3.485)"/><radialGradient cx="605.714" cy="486.648" r="117.143" fx="605.714" fy="486.648" id="i" xlink:href="#b" gradientUnits="userSpaceOnUse" gradientTransform="matrix(-.02218 0 0 .01086 16.26 17.38)"/><radialGradient cx="605.714" cy="486.648" r="117.143" fx="605.714" fy="486.648" id="h" xlink:href="#b" gradientUnits="userSpaceOnUse" gradientTransform="matrix(.02218 0 0 .01086 7.74 17.38)"/><linearGradient x1="302.857" y1="366.648" x2="302.857" y2="609.505" id="g" xlink:href="#c" gradientUnits="userSpaceOnUse" gradientTransform="matrix(.03777 0 0 .01086 -1.65 17.38)"/><linearGradient id="d"><stop offset="0" stop-color="#e6e6e6"/><stop offset="1" stop-color="#c8c8c8"/></linearGradient><linearGradient id="a"><stop offset="0" stop-color="#7a7a7a"/><stop offset="1" stop-color="#474747"/></linearGradient><radialGradient cx="7.22" cy="4.233" r="12" fx="7.22" fy="4.233" id="j" xlink:href="#d" gradientUnits="userSpaceOnUse" gradientTransform="matrix(1.51938 .00372 -.00302 1.23683 -3.737 .068)"/><linearGradient x1="24" y1="51.346" x2="24" y2="53.354" id="l" xlink:href="#e" gradientUnits="userSpaceOnUse" gradientTransform="matrix(.42777 0 0 .5107 6.737 -6.253)"/><linearGradient id="e"><stop offset="0" stop-color="#fff"/><stop offset=".021" stop-color="#fff" stop-opacity=".235"/><stop offset=".992" stop-color="#fff" stop-opacity=".157"/><stop offset="1" stop-color="#fff" stop-opacity=".392"/></linearGradient><linearGradient x1="24" y1="6.539" x2="24" y2="42.102" id="m" xlink:href="#f" gradientUnits="userSpaceOnUse" gradientTransform="matrix(.26233 0 0 .42474 8.084 -.816)"/></defs><path opacity=".402" fill="url(#g)" overflow="visible" d="M2.882 21.363h18.236V24H2.882z"/><path d="M21.11 21.363V24c1.142.005 2.76-.59 2.76-1.32 0-.727-1.274-1.317-2.76-1.317z" opacity=".402" fill="url(#h)" overflow="visible"/><path d="M2.89 21.363V24c-1.142.005-2.76-.59-2.76-1.32 0-.727 1.274-1.317 2.76-1.317z" opacity=".402" fill="url(#i)" overflow="visible"/><path d="M2.5 2L.523 18.483c-.015 0-.023.005-.023.017h23c0-.012-.008-.017-.023-.017L21.5 2c-.1-.827-1.167-1.5-2-1.5h-15c-.833 0-1.9.673-2 1.5z" fill="url(#j)" overflow="visible"/><path d="M2.5 2L.523 18.483c-.015 0-.023.005-.023.017h23c0-.012-.008-.017-.023-.017L21.5 2c-.1-.827-1.167-1.5-2-1.5h-15c-.833 0-1.9.673-2 1.5z" opacity=".35" color="#000" fill="none" stroke="#000" stroke-linecap="round" stroke-linejoin="round" overflow="visible"/><path d="M23.5 18.5c-.466 3.38-.35 3.982-1.196 3.982-.33.048-13.337 0-20.654 0-.917 0-.686.065-1.15-3.98l23-.002z" fill="url(#k)" overflow="visible"/><path d="M23.5 18.5c-.466 3.38-.35 3.982-1.196 3.982-.33.048-13.337 0-20.654 0-.917 0-.686.065-1.15-3.98l23-.002z" opacity=".5" color="#000" fill="none" stroke="#000" stroke-linejoin="round" overflow="visible"/><path d="M1.88 21.47l20.136.017c.056-.198.333-1.987.333-1.987H1.62s.18 1.463.26 1.97z" opacity=".2" color="#000" fill="none" stroke="url(#l)" stroke-linecap="round" overflow="visible"/><path d="M4.5 1.47c-.152 0-.492.12-.72.28-.226.16-.307.344-.31.375L1.624 17.53h20.75L20.53 2.126c-.003-.03-.084-.214-.31-.375-.228-.16-.568-.28-.72-.28h-15z" opacity=".8" color="#000" fill="none" stroke="url(#m)" stroke-linecap="round" stroke-linejoin="round" overflow="visible"/></svg>
